X:1
T:Agua de beber
M:4/4
L:1/4
P:Bossa Nova
Q:100
C:Music by Antonio Carlos Jobim
C:Lyrics by Vinicius de Moraes
R:Bossa Nova
K:Am
|: "Am7"c/A/G/A/-A>c | "B7"_e/_e/d/_e/"E7"dc | "Am7"c/A/G/A/-A>c | "B7"_e/_e/d/_e/"E7"dc |
"Am7"c/A/G/A/-A2 | "Fmaj7"A/G/A3 | "Am7"A/G/A3- | "E7"A2 z2 ||
"Am7"c/A/G/A/-A>c | "B7"_e/_e/d/_e/"E7"dc | "Am7"c/A/G/A/-A>c | "B7"_e/_e/d/_e/"E7"dc |
"Am7"c/A/G/A/-A2 | "Fmaj7"A/G/A3 | "Am7"A/G/A3 | zA/ce_e/- ||
"B7"_e2-_e/=ec/- | "E7"c2-c/Ac/- | "Am7"c/A/-A3 | "D7"zA/ceg/- |
"Dm7"g2-g/ae/- | "G7"e2-e/de/- | "Cmaj7"e4- | eA/ce_e/- ||
"B7"_e2-_e/=ec/- | "E7"c2-c/Ac/- | "Am7"c/A/-A3- | "C7"A2-A/cc/- |
"B7"c/ccc/d | "E7sus"B2^F>A | "Am7"c/B/A3- | "A7"AA/A/c/ed/- ||
"D7"d4- | "Dm7"de/d/c/Ac/- | "Am7"c/A/A/A/-A2 | "A7"AA/A/c/ed/- |
"D7"d4- | "Dm7"de/d/c/Ac/- | "Am7"c/A/A/AA/A- | "E7"Azz2 :|
